packages/icons/web/v2/print_failed_16.svg

<svg width="16" height="16" viewBox="0 0 16 16" fill="none" xmlns="http://www.w3.org/2000/svg">
<g clip-path="url(#clip0_18374_738)">
<path d="M5 0C4.44772 0 4 0.447715 4 1V2H12V1C12 0.447715 11.5523 0 11 0H5Z" fill="currentColor"/>
<path d="M2 4C0.895431 4 0 4.89543 0 6V11C0 11.5523 0.447715 12 1 12H2.67184L0.400076 14.2718C0.00956237 14.6623 0.00956371 15.2955 0.400079 15.686C0.785751 16.0716 1.40808 16.0764 1.79962 15.7003L15.3492 2.1507C15.3532 2.14679 15.3571 2.14291 15.361 2.13908L15.6953 1.80487C16.0858 1.41435 16.0858 0.781204 15.6953 0.390689C15.3047 0.000171363 14.6716 0.000171691 14.2811 0.39069L10.6718 4H2Z" fill="currentColor"/>
<path d="M15.5689 4.75947L11 9.32837V13C11 13.5523 10.5523 14 10 14H6.32837L4.41521 15.9132C4.60019 15.9696 4.79655 16 5 16H10C11.6569 16 13 14.6569 13 13V12H15C15.5523 12 16 11.5523 16 11V6C16 5.53138 15.8388 5.1004 15.5689 4.75947Z" fill="currentColor"/>
</g>
<defs>
<clipPath id="clip0_18374_738">
<rect width="16" height="16" fill="white"/>
</clipPath>
</defs>
</svg>

<svg xmlns="http://www.w3.org/2000/svg" width="16" height="16" fill="none" viewBox="0 0 16 16">
    <path fill="currentColor" d="M5 0a1 1 0 0 0-1 1v1h8V1a1 1 0 0 0-1-1z"/>
    <path fill="currentColor" d="M2 4a2 2 0 0 0-2 2v5a1 1 0 0 0 1 1h1.672L.4 14.272A1 1 0 0 0 1.8 15.7L15.35 2.15l.011-.01.334-.335A1 1 0 0 0 14.281.39L10.671 4zM15.569 4.76 11 9.327V13a1 1 0 0 1-1 1H6.328l-1.913 1.913Q4.694 16 5 16h5a3 3 0 0 0 3-3v-1h2a1 1 0 0 0 1-1V6c0-.469-.161-.9-.431-1.24"/>
</svg>
